X:63
T:Grand March,The. TJD.63
M:2/2
L:1/8
Q:1/4=120
S:T.J.Dixon MS2, Lincolnshire, early 19thC
R:march
N:Repeat mark added at end
A:Lincolnshire, Holton le Moor
Z:vmp.R.Greig2010
K:D
d2(D>D) F>FA>A|d>cd>ed2e2|f>ef.ga2(g>f)|edcBA2e2|!
f2(af)e2(ae)|f2(af)e2(ae)|f>ga>b”tr”^g2>a2|a2(A>A) c>ce>e|a8:|!
|:efed dcBA|edefg4|f2(fe)f2c2|d2(cd)B2c2|d2(fd)c2(fc)|!
d2(fd)c2(fc)|defg”tr”c2>B2|B4gfg2|a2(gf) egfg|!
a2(gf) eGFG|A2(GF) EGFG|BAGFE2e2|f2(a>f)e2(a>e)|!
f2(a>f)e2(a>e)|fgab”tr”e2>d2|d2(D>D) F>FA>A|d8:|]

